resources/icons/20px/locomotive.svg

<svg width="20" height="20" viewBox="0 0 20 20" fill="none" xmlns="http://www.w3.org/2000/svg">
<path d="M9.988 2C10.253 2.00027 10.5071 2.10574 10.6945 2.29325C10.8818 2.48075 10.987 2.73496 10.987 3V7H14.982V5L13.837 3.854C13.767 3.78413 13.7192 3.69505 13.6998 3.59804C13.6804 3.50102 13.6902 3.40043 13.728 3.309C13.7658 3.21757 13.8299 3.1394 13.9121 3.0844C13.9944 3.02939 14.0911 3.00002 14.19 3H17.771C17.8699 3.00002 17.9666 3.02939 18.0489 3.0844C18.1311 3.1394 18.1952 3.21757 18.233 3.309C18.2708 3.40043 18.2806 3.50102 18.2612 3.59804C18.2418 3.69505 18.194 3.78413 18.124 3.854L16.979 5V7C19.975 8.333 21.473 11 17.978 14L19.123 15.146C19.193 15.2159 19.2408 15.3049 19.2602 15.402C19.2796 15.499 19.2698 15.5996 19.232 15.691C19.1942 15.7824 19.1301 15.8606 19.0479 15.9156C18.9656 15.9706 18.8689 16 18.77 16H16.274C16.1848 15.9988 16.0973 15.975 16.0197 15.931C15.942 15.8869 15.8768 15.824 15.83 15.748C14.905 14.315 12.719 12.664 10.143 15.806C10.045 15.926 9.898 16 9.744 16H9.256C9.09 16 8.936 15.916 8.836 15.782C7.775 14.353 5.477 12.739 3.152 15.79C3.10418 15.8544 3.0421 15.9069 2.97063 15.9433C2.89915 15.9797 2.82022 15.9991 2.74 16H1V3C0.999999 2.73513 1.10508 2.48108 1.29219 2.2936C1.47929 2.10612 1.73313 2.00053 1.998 2H9.988ZM2.998 4L2.997 9H5.993V4H2.998ZM8.99 4H6.992V9H8.99V4Z" fill="black"/>
<path d="M5.993 19C4.89 19 3.996 18.105 3.996 17C3.98558 16.7312 4.02953 16.463 4.12522 16.2116C4.22091 15.9601 4.36637 15.7306 4.55288 15.5367C4.73939 15.3428 4.96312 15.1886 5.21066 15.0832C5.45821 14.9779 5.72447 14.9236 5.9935 14.9236C6.26253 14.9236 6.52879 14.9779 6.77634 15.0832C7.02388 15.1886 7.24761 15.3428 7.43412 15.5367C7.62063 15.7306 7.76609 15.9601 7.86178 16.2116C7.95747 16.463 8.00142 16.7312 7.991 17C7.991 17.5301 7.78056 18.0385 7.40592 18.4135C7.03128 18.7885 6.52309 18.9995 5.993 19ZM5.993 18C6.12692 18.0042 6.26032 17.9815 6.38528 17.9332C6.51025 17.8849 6.62423 17.8119 6.72046 17.7187C6.81668 17.6255 6.89319 17.5139 6.94544 17.3905C6.99769 17.2671 7.02462 17.1345 7.02462 17.0005C7.02462 16.8665 6.99769 16.7339 6.94544 16.6105C6.89319 16.4871 6.81668 16.3755 6.72046 16.2823C6.62423 16.1891 6.51025 16.1161 6.38528 16.0678C6.26032 16.0195 6.12692 15.9968 5.993 16.001C5.73339 16.0092 5.48716 16.1181 5.30642 16.3047C5.12568 16.4912 5.02462 16.7408 5.02462 17.0005C5.02462 17.2602 5.12568 17.5098 5.30642 17.6963C5.48716 17.8829 5.73339 17.9918 5.993 18ZM12.984 19C11.881 19 10.987 18.105 10.987 17C10.9766 16.7312 11.0205 16.463 11.1162 16.2116C11.2119 15.9601 11.3574 15.7306 11.5439 15.5367C11.7304 15.3428 11.9541 15.1886 12.2017 15.0832C12.4492 14.9779 12.7155 14.9236 12.9845 14.9236C13.2535 14.9236 13.5198 14.9779 13.7673 15.0832C14.0149 15.1886 14.2386 15.3428 14.4251 15.5367C14.6116 15.7306 14.7571 15.9601 14.8528 16.2116C14.9485 16.463 14.9924 16.7312 14.982 17C14.982 17.5301 14.7716 18.0385 14.3969 18.4135C14.0223 18.7885 13.5141 18.9995 12.984 19ZM12.984 18C13.1179 18.0042 13.2513 17.9815 13.3763 17.9332C13.5012 17.8849 13.6152 17.8119 13.7115 17.7187C13.8077 17.6255 13.8842 17.5139 13.9364 17.3905C13.9887 17.2671 14.0156 17.1345 14.0156 17.0005C14.0156 16.8665 13.9887 16.7339 13.9364 16.6105C13.8842 16.4871 13.8077 16.3755 13.7115 16.2823C13.6152 16.1891 13.5012 16.1161 13.3763 16.0678C13.2513 16.0195 13.1179 15.9968 12.984 16.001C12.7244 16.0092 12.4782 16.1181 12.2974 16.3047C12.1167 16.4912 12.0156 16.7408 12.0156 17.0005C12.0156 17.2602 12.1167 17.5098 12.2974 17.6963C12.4782 17.8829 12.7244 17.9918 12.984 18Z" fill="black"/>
</svg>

<svg xmlns="http://www.w3.org/2000/svg" viewBox="0 0 20 20">
  <path d="M9.988 2a1 1 0 0 1 .999 1v4h3.995V5l-1.145-1.146A.5.5 0 0 1 14.19 3h3.581a.5.5 0 0 1 .353.854L16.979 5v2c2.996 1.333 4.494 4 .999 7l1.145 1.146a.5.5 0 0 1-.353.854h-2.496a.53.53 0 0 1-.444-.252c-.925-1.433-3.111-3.084-5.687.058a.52.52 0 0 1-.399.194h-.488a.53.53 0 0 1-.42-.218c-1.061-1.429-3.359-3.043-5.684.008a.52.52 0 0 1-.412.21H1V3a1 1 0 0 1 .998-1zm-6.99 2-.001 5h2.996V4zM8.99 4H6.992v5H8.99z"/>
  <path d="M5.993 19a2 2 0 0 1-1.997-2 1.999 1.999 0 1 1 3.995 0 2 2 0 0 1-1.998 2m0-1a1.001 1.001 0 1 0 .063-2.001A1.001 1.001 0 0 0 5.993 18m6.991 1a2 2 0 0 1-1.997-2 1.999 1.999 0 1 1 3.995 0 2 2 0 0 1-1.998 2m0-1a1.001 1.001 0 0 0 .392-1.932 1.001 1.001 0 0 0-1.079 1.628 1 1 0 0 0 .687.304"/>
</svg>
